X:3236
L:1/8
M:4/4
K:Bmin
 (FE) | D3 C B,2 (FA) | (BA) (FA) B2 (dB) |{B} A2 (GF) d2 F2 | (GF) (ED) E2 (FE) | D3 C B,2 (FA) | 
 (BA) (FA) B3 c | d3 c (B>c) (dB) | A2 (F>G) F2 || A2 | d3 e d2 D2 | (FG) (AB){B} A2 (GF) | 
 d3 e{e} d2 (cB) | (cd) (ef) e2 (de) | f3 e d2 D2 | F2 A2 f3 e | d>c (B>c) (dB) | A2 (F>G) F2 z2 ||

